X:88
T:Humours of Tuamgreine, The
T:Humours of Tuamgraney, The
T:Tuam Greaney Hornpipe
T:Toomgraney Castle
R:hornpipe
D:Toma/s & Seosamh O/ Ceannabha/in: O/ Aird go hAird
Z:id:hn-hornpipe-88
M:C|
K:Ador
cB|A2AB AGEG|AGAB cBcd|(3efg fa gedc|B2G2 G2cB|
A2AB AGEG|AGAB cBcd|(3efg fa gedB|c2A2 A2:|
(3efg|agab ageg|agab a2ge|dega gedc|B2G2 G2 (3efg|
agab ageg|agab a2ge|dega gedB|c2A2 A2 (3efg|
agab ageg|agab a2ge|dega gedc|B2G2 G2cB|
A2AB AGEG|AGAB cBcd|(3efg fa gedB|c2A2 A2||
<end>
<start>
